icons/calendar/calendar-text.svg

<svg width="14" height="14" viewBox="0 0 14 14" fill="none"
    xmlns="http://www.w3.org/2000/svg">
    <path d="M8.5 2C8.77614 2 9 2.22386 9 2.5V3H10.5C11.3284 3 12 3.67157 12 4.5V10.5C12 11.3284 11.3284 12 10.5 12H3.5C2.67157 12 2 11.3284 2 10.5V4.5C2 3.67157 2.67157 3 3.5 3H5V2.5C5 2.22386 5.22386 2 5.5 2C5.77614 2 6 2.22386 6 2.5V3H8V2.5C8 2.22386 8.22386 2 8.5 2ZM3 10.5C3 10.7761 3.22386 11 3.5 11H10.5C10.7761 11 11 10.7761 11 10.5V6H3V10.5ZM3.5 4C3.22386 4 3 4.22386 3 4.5V5H11V4.5C11 4.22386 10.7761 4 10.5 4H9C9 4.27614 8.77614 4.5 8.5 4.5C8.22386 4.5 8 4.27614 8 4H6C6 4.27614 5.77614 4.5 5.5 4.5C5.22386 4.5 5 4.27614 5 4H3.5Z" fill="red"/>
    <path d="M4.5 7.5H5.5" stroke="green" stroke-linecap="round" stroke-linejoin="round"/>
    <path d="M4.5 9.5H8.5" stroke="green" stroke-linecap="round" stroke-linejoin="round"/>
</svg>

<svg xmlns="http://www.w3.org/2000/svg" width="14" height="14" fill="none" viewBox="0 0 14 14"><path fill="red" d="M8.5 2a.5.5 0 0 1 .5.5V3h1.5A1.5 1.5 0 0 1 12 4.5v6a1.5 1.5 0 0 1-1.5 1.5h-7A1.5 1.5 0 0 1 2 10.5v-6A1.5 1.5 0 0 1 3.5 3H5v-.5a.5.5 0 0 1 1 0V3h2v-.5a.5.5 0 0 1 .5-.5M3 10.5a.5.5 0 0 0 .5.5h7a.5.5 0 0 0 .5-.5V6H3zM3.5 4a.5.5 0 0 0-.5.5V5h8v-.5a.5.5 0 0 0-.5-.5H9a.5.5 0 0 1-1 0H6a.5.5 0 0 1-1 0z"/><path stroke="green" stroke-linecap="round" stroke-linejoin="round" d="M4.5 7.5h1m-1 2h4"/></svg>
